X: 1773
T: the Tullamore Piper   #2
R: hornpipe, reel
%S: s:2 b:16(0+5)
O: Delaney
B: O'Neill's 1850 #1773
Z: Bob Safranek, rjs@gsp.org
Z: Compacted via repeats and multiple endings [JC]
M: C|
L: 1/8
K: D
(Tfe) |: dfAd f2(Tfe) | d2(ba) ^gaed | ceAc eAce |1 dgba ^ga=ge :|2 d2f2 d2 |]
  A2  |: B2c2 Td2(cB) | BA^GA F2(ed) | ceAc eAce |1 dfba ^gafd  :|2 d2f2 d2 |]
